X:1
T:Title
%%score ( 1 2 ) { 3 | 4 }
L:1/8
Q:1/4=100
M:3/4
K:G
V:1 treble nm="Grand Piano, Soprano"
V:2 treble 
V:3 bass nm="Choir Pad, Oviedo, M. J. Smalley"
V:4 bass 
V:1
 [B,D]2 [DB]>[^C_B] [D=B]2 | [Ec]2 [CA]>[B,^G] [CA]2 | [Ec]2 [DB]3 [CA] | [B,G][CA] [DB]4 | %4
w: Generated~by~NoteWorthy~Composer * * *||||
 [B,D]2 [DB]>[^C_B] [D=B]2 | [Ec]2 [CA]>[B,^G] [CA]2 | [Ec]2 [DB]3 [CA] | [B,G]F/-[CF]/ [B,G]4 | %8
w: ||||
 [B,G]2 [Ec]>[Ec] [Ec]2 | [CE]2 [B,D][B,G] [DB]2- | [DB][DB] [^CB]3 [CA] | [^CA][CB] [=CA]4 | %12
w: ||||
 DG [DB]>[^C_B] [D=B]2 | [Ec]2 [CA]>[B,^G] [CA]2 | [Ec]2 [DB]3 [CA] | [B,G]F/-[CF]/ [B,G]4 | %16
w: ||||
 [CE][EG] [Ec]>[Ec] [Ec]2 | [CE]2 [B,D][DG] [GB]2- | [GB][GB] [GB]3 [FA] | [EG][DA] [DB]4 | %20
w: ||||
 [CE][DF] [Ec]>[Ec] [Ec]2 | [CE]2 [B,D][DG] [GB]2- | [GB][Gd] [Gd]3 [Gc] | [GB][FA] [DG]4- | %24
w: ||||
 [DG]4 z2 |] %25
w: |
V:2
 x6 | x6 | x6 | x6 | x6 | x6 | x6 | z .A, z2 z2 | x6 | x6 | x6 | x6 | B,2 z2 z2 | x6 | x6 | %15
 z .A, z2 z2 | x6 | x6 | x6 | x6 | x6 | x6 | x6 | x6 | x6 |] %25
V:3
 G,2 G,4- | G,2 F,4- | F,2 G,3 D, | E,D, G,4 | G,2 G,4- | G,2 F,4- | F,2 G,3 C, | D,D, D,4 | %8
 G,2 G,4- | G,2 G,4- | G,2 E,4 | G,2 F,4 | G,2 G,4- | G,2 F,4- | F,2 G,3 C, | D,D, D,4 | %16
 G,2 G,>G, G,2 | G,2 z B,[K:treble] D2- | DD D3 C | B,F, G,4 | G,2 G,>G, G,2 | %21
 G,2 z B,[K:treble] D2- | DB, B,3 E | DC B,4- | B,4 z2 |] %25
V:4
 G,,2 G,,4- | G,,2 D,4- | D,2 z2 z2 | z2 G,,4 | G,,2 G,,4- | G,,2 D,4- | D,2 z2 z2 | z2 G,,4 | %8
 G,,2 C,4- | C,2 G,,4- | G,,2 A,,4- | A,,2 D,4 | G,,2 G,,4- | G,,2 D,4- | D,2 z2 z2 | z2 G,,4 | %16
 C,2 C,>C, C,2 | C,E, G,G, G,2- | G,G, D,3 D, | E,D, z2 z2 | C,2 C,>C, C,2 | C,E, G,G, G,2- | %22
 G,G, G,3 C, | D,D, [G,,G,]4- | [G,,G,]4 z2 |] %25

